lib/brands/icons/google-chromium.svg

<svg xmlns="http://www.w3.org/2000/svg" fill="none" aria-hidden="true" viewBox="0 0 48 48"><g id="google-chromium-Icon"><g id="Group"><path id="path4797" fill="#91B0E8" d="M39.9505 15.6539C14.739 35.7957 27.3448 25.7248 39.9505 15.6539V15.6539ZM39.9505 15.6539L25.3778 15.6596C29.3907 16.3177 32.4527 19.8009 32.4527 24C32.4498 26.0651 31.6909 28.0577 30.3195 29.6016L23.0923 41.9773C23.393 41.9922 23.6955 42 23.9998 42C33.941 42 41.9999 33.9411 41.9998 24C41.9998 20.9876 41.2586 18.1488 39.9505 15.6539V15.6539Z"/><path id="path3923" fill="#396BD7" d="M24.0001 6C17.5287 5.99998 11.8558 9.41568 8.68358 14.542L15.7077 25.6041C15.7403 26.1306 15.5476 24.0378 15.5472 24C15.5473 19.3316 19.3318 15.5472 24.0001 15.5471C24.4384 15.5506 25.3436 15.639 25.776 15.7103L39.9508 15.6539C36.942 9.91553 30.9289 5.99998 24.0001 6ZM8.68141 14.5455C4.31616 35.4262 6.49879 24.9858 8.68141 14.5455V14.5455Z"/><path id="path3923-1" fill="#6199F6" d="M8.68344 14.542C6.98261 17.2905 5.99999 20.5303 6 24C5.99997 33.6368 13.573 41.5046 23.0924 41.9773L30.3196 29.6016C28.7177 31.412 26.4173 32.4498 24 32.4529C19.9527 32.4496 16.4757 29.5778 15.7076 25.6041L8.68344 14.542Z"/><path id="rect5020-5-5" fill="#367100" d="M8.66943 14.5423L15.7213 25.5985L18.3835 22.6532L8.66943 14.5423ZM39.9522 15.6497L25.7759 15.7103L27.1718 18.9457L39.9522 15.6497V15.6497ZM25.6532 28.5196L23.0923 41.979L30.3146 29.6099L25.6532 28.5196Z" opacity="0.1"/><path id="path4162" fill="white" d="M23.9998 32.4529C28.6683 32.4529 32.4528 28.6684 32.4528 24C32.4528 19.3315 28.6683 15.547 23.9998 15.547C19.3314 15.547 15.5469 19.3315 15.5469 24C15.5469 28.6684 19.3314 32.4529 23.9998 32.4529Z"/><path id="path3956" fill="#4688F4" d="M23.9999 30.975C27.8521 30.975 30.9749 27.8522 30.9749 24C30.9749 20.1478 27.8521 17.025 23.9999 17.025C20.1477 17.025 17.0249 20.1478 17.0249 24C17.0249 27.8522 20.1477 30.975 23.9999 30.975Z"/></g></g></svg>

<svg xmlns="http://www.w3.org/2000/svg" fill="none" aria-hidden="true" viewBox="0 0 48 48"><path fill="#91B0E8" d="M39.95 15.654c-25.211 20.142-12.605 10.07 0 0Zm0 0-14.572.006A8.455 8.455 0 0 1 32.453 24a8.453 8.453 0 0 1-2.134 5.602l-7.227 12.375c.301.015.604.023.908.023 9.941 0 18-8.059 18-18a17.92 17.92 0 0 0-2.05-8.346Z"/><path fill="#396BD7" d="M24 6c-6.47 0-12.144 3.416-15.316 8.542l7.024 11.062c.032.527-.16-1.566-.16-1.604A8.453 8.453 0 0 1 24 15.547a15.59 15.59 0 0 1 1.776.163l14.175-.056C36.942 9.916 30.929 6 24 6ZM8.681 14.546c-4.365 20.88-2.182 10.44 0 0Z"/><path fill="#6199F6" d="M8.683 14.542A17.914 17.914 0 0 0 6 24c0 9.637 7.573 17.505 17.092 17.977l7.228-12.375a8.453 8.453 0 0 1-6.32 2.85 8.453 8.453 0 0 1-8.292-6.848L8.683 14.542Z"/><path fill="#367100" d="M8.67 14.542 15.72 25.6l2.663-2.946-9.715-8.11Zm31.282 1.108-14.176.06 1.396 3.236 12.78-3.296ZM25.653 28.52l-2.56 13.459 7.222-12.37-4.662-1.09Z" opacity=".1"/><path fill="#fff" d="M24 32.453a8.453 8.453 0 1 0 0-16.906 8.453 8.453 0 0 0 0 16.906Z"/><path fill="#4688F4" d="M24 30.975a6.975 6.975 0 1 0 0-13.95 6.975 6.975 0 0 0 0 13.95Z"/></svg>
